X: 24778
T: Maggie
R: hornpipe
M: 4/4
K: Gmajor
GEDE GABd|dBAG BA A2|GEDE GABd|dBAB G4:|
gfed edBd|dBAG EAA2|gfed edBd|dBAB G4|
gfed edBd|dBAG EAA2|GEDE GABd|dBAB G4||

